Adwaita++/apps/scalable/meld.svg

<svg enable-background="new" height="128" viewBox="0 0 128 128" width="128" xmlns="http://www.w3.org/2000/svg">
  <path d="m20.039062 16c-4.432 0-8 3.568-8 8v84c0 4.432 3.568001 8 8 8h39.957032 4.042968 43.294918c6.07629 0 8.66602-4.51575 8.66602-10.125v-39.875h-51.960938v-50z" fill="#797979" transform="matrix(.99998117 0 0 1 -.038835 0)"/>
  <path d="m20.039062 12c-4.432 0-8 3.568-8 8v84c0 4.432 3.568001 8 8 8h40 4 44.001958c4.432 0 8-3.568 8-8v-84c0-4.432-3.568-8-8-8h-44.001958-4z" fill="#1a5fb4" transform="matrix(.99998117 0 0 1 -.038835 0)"/>
  <g fill="#ffa348" fill-rule="evenodd">
    <path d="m116 91.099606v-48.824219c-3.24096-3.676378-6.96251-7.050237-11.25977-9.910156-8.099678-5.390534-17.727068-9.027008-27.304683-9.117188-.308955-.0026-.613072.0016-.921875.0059-9.881745.145161-19.706638 4.173934-27.595703 14.027344-8.070562 10.080118-2.320242 24.245999 4.746093 28.304688 5.713724 2.647238 10.722747-1.738187 11.464844-4.544922-2.049124.940285-8.654157 1.015597-9.861328-2.990234-1.26732-9.30746 4.870845-15.93701 13.552734-16.884766 14.662026-1.600581 26.104908 12.933011 27.277344 26.636719 1.653518 19.32686-13.36205 38.634279-31.085937 44.164059l30.376953.033169h.06836c11.234378-.5659 20.164188-9.61609 20.542968-20.900394z"/>
    <path d="m54.21875 12h-33.378906c-5.363054 3.936961-8.839844 10.279273-8.839844 17.470703v5.082031 43.007813c3.240951 3.676378 6.962511 7.048283 11.259766 9.908203 8.36096 5.564424 18.344829 9.264311 28.226562 9.119141 9.881742-.145159 19.706641-4.181758 27.595703-14.035157 8.07057-10.080126 2.32023-24.238187-4.746093-28.296875-5.713723-2.647239-10.722747 1.73232-11.464844 4.539063 2.049122-.940294 8.681504-1.390597 9.888672 2.615234 1.267321 9.307461-4.898188 16.310055-13.580078 17.257813-14.662023 1.600582-26.104908-12.933011-27.277344-26.636719-1.369366-16.005578 8.750696-31.868501 22.316406-40.03125z"/>
  </g>
</svg>

<svg xmlns="http://www.w3.org/2000/svg" xmlns:xlink="http://www.w3.org/1999/xlink" width="128" height="128" version="1.0" viewBox="0 0 128 128" style="enable-background:new">
 <title id="title4162">
  Adwaita Icon Template
 </title>
 <defs>
  <linearGradient id="linearGradient6501-7" x1="314.031" x2="311.126" y1="192.257" y2="669.858" gradientTransform="matrix(0.19290392,0,0,0.19290988,-112.81852,5.1004639)" gradientUnits="userSpaceOnUse" xlink:href="#linearGradient8955-2"/>
  <linearGradient id="linearGradient8955-2">
   <stop style="stop-color:#729fcf" id="stop8957-9" offset="0"/>
   <stop style="stop-color:#3465a4" id="stop8959-9" offset="1"/>
  </linearGradient>
  <linearGradient id="linearGradient4484" x1="77.443" x2="77.22" y1="5.96" y2="43.501" gradientTransform="matrix(2.244707,0,0,2.2209209,-145.20683,6.4916893)" gradientUnits="userSpaceOnUse" xlink:href="#linearGradient6455"/>
  <linearGradient id="linearGradient6455">
   <stop style="stop-color:#fdb245" id="stop6457" offset="0"/>
   <stop style="stop-color:#f57900" id="stop6459" offset="1"/>
  </linearGradient>
  <linearGradient id="linearGradient940" x1="77.443" x2="77.22" y1="5.96" y2="43.501" gradientTransform="matrix(2.244707,0,0,2.2209209,-145.20683,6.4916893)" gradientUnits="userSpaceOnUse" xlink:href="#linearGradient6455"/>
 </defs>
 <g id="layer1" transform="matrix(0.99998117,0,0,1,-0.0388353,-172)">
  <g id="layer9">
   <path d="m 20.039062,16 c -4.432,0 -8,3.568 -8,8 v 84 c 0,4.432 3.568001,8 8,8 h 39.957032 4.042968 43.294918 C 113.41027,116 116,111.48425 116,105.875 V 66 H 64.039062 V 16 Z" transform="translate(0,172)" style="fill:#797979"/>
   <path d="m 20.039062,12 c -4.432,0 -8,3.568 -8,8 v 84 c 0,4.432 3.568001,8 8,8 h 40 4 44.001958 c 4.432,0 8,-3.568 8,-8 V 20 c 0,-4.432 -3.568,-8 -8,-8 h -44.001958 -4 z" transform="translate(0,172)" style="fill:#1a5fb4"/>
  </g>
 </g>
 <path d="M 116,91.099606 V 42.275387 c -3.24096,-3.676378 -6.96251,-7.050237 -11.25977,-9.910156 -8.099678,-5.390534 -17.727068,-9.027008 -27.304683,-9.117188 -0.308955,-0.0026 -0.613072,0.0016 -0.921875,0.0059 -9.881745,0.145161 -19.706638,4.173934 -27.595703,14.027344 -8.070562,10.080118 -2.320242,24.245999 4.746093,28.304688 5.713724,2.647238 10.722747,-1.738187 11.464844,-4.544922 -2.049124,0.940285 -8.654157,1.015597 -9.861328,-2.990234 -1.26732,-9.30746 4.870845,-15.93701 13.552734,-16.884766 14.662026,-1.600581 26.104908,12.933011 27.277344,26.636719 1.653518,19.32686 -13.36205,38.634279 -31.085937,44.164059 L 95.388672,112 h 0.06836 C 106.69141,111.4341 115.62122,102.38391 116,91.099606 Z" style="fill:#ffa348;fill-rule:evenodd"/>
 <path d="M 54.21875 12 L 20.839844 12 C 15.47679 15.936961 12 22.279273 12 29.470703 L 12 34.552734 L 12 77.560547 C 15.240951 81.236925 18.962511 84.60883 23.259766 87.46875 C 31.620726 93.033174 41.604595 96.733061 51.486328 96.587891 C 61.36807 96.442732 71.192969 92.406133 79.082031 82.552734 C 87.152601 72.472608 81.402261 58.314547 74.335938 54.255859 C 68.622215 51.60862 63.613191 55.988179 62.871094 58.794922 C 64.920216 57.854628 71.552598 57.404325 72.759766 61.410156 C 74.027087 70.717617 67.861578 77.720211 59.179688 78.667969 C 44.517665 80.268551 33.07478 65.734958 31.902344 52.03125 C 30.532978 36.025672 40.65304 20.162749 54.21875 12 z" style="fill:#ffa348;fill-rule:evenodd"/>
</svg>
